X:1
T:Clair de Lune
C:Claude Debussy
M:9/8
L:1/8
Q:3/8=50
K:Db
% A section — 14 bars, Eb4–Db5
A6 GE2 | A2 B2 d3 _cB | A4 G2 E3 | E6 z3 |
F3 G2 A4 | B3 d2 _c2 BA | G6 E3 | A6 G2 E |
A2 B2 d3 _cB | A4 G2 E3 | G3 E3 B3 | A6 G2 E |
A2 B2 d3 _cB | d9 |]
